X: 10
T: Tian's March [Edor]
M:4/4
L:1/8
Q:1/4=240
C:Len Bittenson 2017
R:Reel
K:Edor
|:\
"Em"B2 E2 E2 Bc | d2 B2 B2 A2 | "D" F2 D2 F2 A2 | "Bm"d2 f2 "A"e2 c2 |
"Em"B2 E2 E2 Bc | d2 B2 B2 A2 | "D"F2 D2 D2 F2 | "Em"E4 E4 :|
[|\
"Em"B2 e2 e2 d2 | e4 e2 fg | "D"f2 A2 f2 e2 | d4 d2 c2 |
"A"A2 e2 e2 d2 | e4 f2 e2 | "Bm" d2 B2 A2 F2 | "D" D4 F2 A2 ||
"Em"B2 e2 e2 d2 | e4 e2 fg | "D"f2 A2 f2 e2 | d4 d2 c2 |
"Em"B2 e2 d2 c2 | "G"d2 B2 A2 F2 | "D"D2 E2 F2 D2 | "Em" E8 |]

%%sep 1 1 500

